assets/img/braze_icons/upload-04.svg

<svg fill="none" height="24" viewBox="0 0 24 24" width="24" xmlns="http://www.w3.org/2000/svg"><path d="m16.3788 22.0939c-.7623.3312-1.1435.4968-1.7455.3845-.4393-.0819-1.0403-.476-1.2905-.8464-.3428-.5074-.3428-1.0643-.3428-2.1782v-9.0396l2.2929 2.2929c.3905.3905 1.0237.3905 1.4142 0s.3905-1.0237 0-1.4142l-4-4.00001c-.3905-.39052-1.0237-.39052-1.4142 0l-4.00001 4.00001c-.39052.3905-.39052 1.0237 0 1.4142.39053.3905 1.02369.3905 1.41422 0l2.29289-2.2929-.0001 8.9304c-.001 1.261-.0018 2.2566.7341 3.2974.0877.1239.1918.2438.3062.3579-.0134.0001-.0268.0001-.0402.0001-6.07513 0-11-4.9249-11-11 0-6.07513 4.92487-11 11-11 6.0751 0 11 4.92487 11 11 0 4.5189-2.7249 8.4013-6.6212 10.0939z" fill="#801ed7"/></svg>

<svg width="24" height="24" viewBox="0 0 24 24" fill="none" xmlns="http://www.w3.org/2000/svg">
<path d="M16.3788 22.0939C15.6165 22.4251 15.2353 22.5907 14.6333 22.4784C14.194 22.3965 13.593 22.0024 13.3428 21.632C13 21.1246 13 20.5677 13 19.4538V10.4142L15.2929 12.7071C15.6834 13.0976 16.3166 13.0976 16.7071 12.7071C17.0976 12.3166 17.0976 11.6834 16.7071 11.2929L12.7071 7.29289C12.3166 6.90237 11.6834 6.90237 11.2929 7.29289L7.29289 11.2929C6.90237 11.6834 6.90237 12.3166 7.29289 12.7071C7.68342 13.0976 8.31658 13.0976 8.70711 12.7071L11 10.4142L10.9999 19.3446C10.9989 20.6056 10.9981 21.6012 11.734 22.642C11.8217 22.7659 11.9258 22.8858 12.0402 22.9999C12.0268 23 12.0134 23 12 23C5.92487 23 1 18.0751 1 12C1 5.92487 5.92487 1 12 1C18.0751 1 23 5.92487 23 12C23 16.5189 20.2751 20.4013 16.3788 22.0939Z" fill="#801ED7"/>
</svg>
